images/logos/mastercard.svg

<svg width="65" height="39" viewBox="0 0 65 39" fill="none" xmlns="http://www.w3.org/2000/svg">
<path d="M65 19.5C65 30.2 56.3 39 45.5 39C34.8 39 26 30.2 26 19.5C26 8.8 34.7 0 45.4 0C56.3 0 65 8.8 65 19.5Z" fill="#F9B50B"/>
<path d="M38.9 19.6C38.9 18.2 38.7 16.8 38.5 15.5H26.5C26.6 14.8 26.8 14.2 27 13.4H37.7C37.5 12.7 37.2 12 36.9 11.3H27.8C28.1 10.6 28.5 10 28.9 9.2H35.8C35.4 8.5 34.9 7.8 34.3 7.1H30.5C31.1 6.4 31.7 5.8 32.5 5.1C29.1 1.9 24.5 0 19.4 0C8.8 0.3 0 8.8 0 19.5C0 30.2 8.7 39 19.5 39C24.6 39 29.1 37 32.6 33.9C33.3 33.3 33.9 32.6 34.6 31.8H30.6C30.1 31.2 29.6 30.5 29.2 29.8H36C36.4 29.2 36.8 28.5 37.1 27.7H28C27.7 27.1 27.4 26.4 27.2 25.6H37.9C38.5 23.8 38.9 21.8 38.9 19.6Z" fill="#C8191C"/>
<path d="M26.4004 24.4999L26.7004 22.6999C26.6004 22.6999 26.4004 22.7999 26.2004 22.7999C25.5004 22.7999 25.4004 22.3999 25.5004 22.1999L26.1004 18.5999H27.2004L27.5004 16.5999H26.5004L26.7004 15.3999H24.6004C24.6004 15.3999 23.4004 22.1999 23.4004 22.9999C23.4004 24.1999 24.1004 24.7999 25.1004 24.7999C25.7004 24.7999 26.2004 24.5999 26.4004 24.4999Z" fill="white"/>
<path d="M27.0996 21.2001C27.0996 24.1001 29.0996 24.8001 30.6996 24.8001C32.1996 24.8001 32.8996 24.5001 32.8996 24.5001L33.2996 22.5001C33.2996 22.5001 32.1996 23.0001 31.0996 23.0001C28.7996 23.0001 29.1996 21.3001 29.1996 21.3001H33.3996C33.3996 21.3001 33.6996 20.0001 33.6996 19.4001C33.6996 18.1001 32.9996 16.4001 30.6996 16.4001C28.6996 16.3001 27.0996 18.6001 27.0996 21.2001ZM30.6996 18.2001C31.7996 18.2001 31.5996 19.5001 31.5996 19.6001H29.2996C29.3996 19.5001 29.5996 18.2001 30.6996 18.2001Z" fill="white"/>
<path d="M43.7996 24.4999L44.1996 22.1999C44.1996 22.1999 43.1996 22.6999 42.3996 22.6999C40.9996 22.6999 40.2996 21.5999 40.2996 20.2999C40.2996 17.7999 41.4996 16.4999 42.9996 16.4999C43.9996 16.4999 44.8996 17.0999 44.8996 17.0999L45.1996 14.8999C45.1996 14.8999 43.9996 14.3999 42.7996 14.3999C40.3996 14.3999 38.0996 16.4999 38.0996 20.3999C38.0996 22.9999 39.2996 24.6999 41.7996 24.6999C42.6996 24.7999 43.7996 24.4999 43.7996 24.4999Z" fill="white"/>
<path d="M15.0992 16.2998C13.6992 16.2998 12.5992 16.6998 12.5992 16.6998L12.2992 18.4998C12.2992 18.4998 13.1992 18.0998 14.5992 18.0998C15.2992 18.0998 15.8992 18.1998 15.8992 18.7998C15.8992 19.1998 15.7992 19.2998 15.7992 19.2998H14.8992C13.0992 19.2998 11.1992 19.9998 11.1992 22.3998C11.1992 24.2998 12.3992 24.6998 13.1992 24.6998C14.5992 24.6998 15.2992 23.7998 15.3992 23.7998L15.2992 24.5998H16.9992L17.7992 18.8998C17.7992 16.3998 15.7992 16.2998 15.0992 16.2998ZM15.4992 20.8998C15.4992 21.1998 15.2992 22.8998 14.0992 22.8998C13.4992 22.8998 13.2992 22.3998 13.2992 22.0998C13.2992 21.5998 13.5992 20.8998 15.1992 20.8998C15.3992 20.8998 15.4992 20.8998 15.4992 20.8998Z" fill="white"/>
<path d="M19.8008 24.7002C20.3008 24.7002 22.9008 24.8002 22.9008 22.0002C22.9008 19.4002 20.4008 19.9002 20.4008 18.9002C20.4008 18.4002 20.8008 18.2002 21.5008 18.2002C21.8008 18.2002 22.9008 18.3002 22.9008 18.3002L23.2008 16.4002C23.2008 16.4002 22.5008 16.2002 21.2008 16.2002C19.7008 16.2002 18.1008 16.8002 18.1008 18.9002C18.1008 21.3002 20.7008 21.1002 20.7008 22.0002C20.7008 22.6002 20.0008 22.7002 19.5008 22.7002C18.6008 22.7002 17.6008 22.4002 17.6008 22.4002L17.3008 24.3002C17.5008 24.5002 18.1008 24.7002 19.8008 24.7002Z" fill="white"/>
<path d="M60.9996 14.7002L60.5996 17.5002C60.5996 17.5002 59.7996 16.5002 58.5996 16.5002C56.6996 16.5002 55.0996 18.8002 55.0996 21.5002C55.0996 23.2002 55.8996 24.9002 57.6996 24.9002C58.8996 24.9002 59.6996 24.1002 59.6996 24.1002L59.5996 24.8002H61.6996L63.1996 14.9002L60.9996 14.7002ZM59.9996 20.1002C59.9996 21.2002 59.4996 22.7002 58.2996 22.7002C57.5996 22.7002 57.1996 22.1002 57.1996 21.0002C57.1996 19.3002 57.8996 18.3002 58.8996 18.3002C59.5996 18.4002 59.9996 18.9002 59.9996 20.1002Z" fill="white"/>
<path d="M3.80078 24.6002L5.00078 17.2002L5.20078 24.6002H6.60078L9.30078 17.2002L8.20078 24.6002H10.4008L12.1008 14.7002H8.70078L6.60078 20.8002L6.50078 14.7002H3.50078L1.80078 24.6002H3.80078Z" fill="white"/>
<path d="M35.8 24.6C36.4 21.2 36.5 18.4 38 18.9C38.2 17.6 38.5 17 38.7 16.5H38.3C37.4 16.5 36.6 17.7 36.6 17.7L36.8 16.6H34.8L33.5 24.6H35.8Z" fill="white"/>
<path d="M48.5992 16.2998C47.1992 16.2998 46.0992 16.6998 46.0992 16.6998L45.7992 18.4998C45.7992 18.4998 46.6992 18.0998 48.0992 18.0998C48.7992 18.0998 49.3992 18.1998 49.3992 18.7998C49.3992 19.1998 49.2992 19.2998 49.2992 19.2998H48.3992C46.5992 19.2998 44.6992 19.9998 44.6992 22.3998C44.6992 24.2998 45.8992 24.6998 46.6992 24.6998C48.0992 24.6998 48.7992 23.7998 48.8992 23.7998L48.7992 24.5998H50.6992L51.4992 18.8998C51.4992 16.3998 49.2992 16.2998 48.5992 16.2998ZM49.0992 20.8998C49.0992 21.1998 48.8992 22.8998 47.6992 22.8998C47.0992 22.8998 46.8992 22.3998 46.8992 22.0998C46.8992 21.5998 47.1992 20.8998 48.7992 20.8998C48.9992 20.8998 48.9992 20.8998 49.0992 20.8998Z" fill="white"/>
<path d="M53.1008 24.6C53.7008 21.2 53.8008 18.4 55.3008 18.9C55.5008 17.6 55.8008 17 56.0008 16.5H55.6008C54.7008 16.5 53.9008 17.7 53.9008 17.7L54.1008 16.6H52.1008L50.8008 24.6H53.1008Z" fill="white"/>
</svg>

<svg width="65" height="39" fill="none" xmlns="http://www.w3.org/2000/svg"><path d="M65 19.5C65 30.2 56.3 39 45.5 39 34.8 39 26 30.2 26 19.5S34.7 0 45.4 0C56.3 0 65 8.8 65 19.5z" fill="#F9B50B"/><path d="M38.9 19.6c0-1.4-.2-2.8-.4-4.1h-12c.1-.7.3-1.3.5-2.1h10.7c-.2-.7-.5-1.4-.8-2.1h-9.1c.3-.7.7-1.3 1.1-2.1h6.9c-.4-.7-.9-1.4-1.5-2.1h-3.8c.6-.7 1.2-1.3 2-2-3.4-3.2-8-5.1-13.1-5.1C8.8.3 0 8.8 0 19.5S8.7 39 19.5 39c5.1 0 9.6-2 13.1-5.1.7-.6 1.3-1.3 2-2.1h-4c-.5-.6-1-1.3-1.4-2H36c.4-.6.8-1.3 1.1-2.1H28c-.3-.6-.6-1.3-.8-2.1h10.7c.6-1.8 1-3.8 1-6z" fill="#C8191C"/><path d="M26.4 24.5l.3-1.8c-.1 0-.3.1-.5.1-.7 0-.8-.4-.7-.6l.6-3.6h1.1l.3-2h-1l.2-1.2h-2.1s-1.2 6.8-1.2 7.6c0 1.2.7 1.8 1.7 1.8.6 0 1.1-.2 1.3-.3zm.7-3.3c0 2.9 2 3.6 3.6 3.6 1.5 0 2.2-.3 2.2-.3l.4-2s-1.1.5-2.2.5c-2.3 0-1.9-1.7-1.9-1.7h4.2s.3-1.3.3-1.9c0-1.3-.7-3-3-3-2-.1-3.6 2.2-3.6 4.8zm3.6-3c1.1 0 .9 1.3.9 1.4h-2.3c.1-.1.3-1.4 1.4-1.4zm13.1 6.3l.4-2.3s-1 .5-1.8.5c-1.4 0-2.1-1.1-2.1-2.4 0-2.5 1.2-3.8 2.7-3.8 1 0 1.9.6 1.9.6l.3-2.2s-1.2-.5-2.4-.5c-2.4 0-4.7 2.1-4.7 6 0 2.6 1.2 4.3 3.7 4.3.9.1 2-.2 2-.2zm-28.7-8.2c-1.4 0-2.5.4-2.5.4l-.3 1.8s.9-.4 2.3-.4c.7 0 1.3.1 1.3.7 0 .4-.1.5-.1.5h-.9c-1.8 0-3.7.7-3.7 3.1 0 1.9 1.2 2.3 2 2.3 1.4 0 2.1-.9 2.2-.9l-.1.8H17l.8-5.7c0-2.5-2-2.6-2.7-2.6zm.4 4.6c0 .3-.2 2-1.4 2-.6 0-.8-.5-.8-.8 0-.5.3-1.2 1.9-1.2h.3zm4.3 3.8c.5 0 3.1.1 3.1-2.7 0-2.6-2.5-2.1-2.5-3.1 0-.5.4-.7 1.1-.7.3 0 1.4.1 1.4.1l.3-1.9s-.7-.2-2-.2c-1.5 0-3.1.6-3.1 2.7 0 2.4 2.6 2.2 2.6 3.1 0 .6-.7.7-1.2.7-.9 0-1.9-.3-1.9-.3l-.3 1.9c.2.2.8.4 2.5.4zm41.2-10l-.4 2.8s-.8-1-2-1c-1.9 0-3.5 2.3-3.5 5 0 1.7.8 3.4 2.6 3.4 1.2 0 2-.8 2-.8l-.1.7h2.1l1.5-9.9-2.2-.2zm-1 5.4c0 1.1-.5 2.6-1.7 2.6-.7 0-1.1-.6-1.1-1.7 0-1.7.7-2.7 1.7-2.7.7.1 1.1.6 1.1 1.8zM3.8 24.6L5 17.2l.2 7.4h1.4l2.7-7.4-1.1 7.4h2.2l1.7-9.9H8.7l-2.1 6.1-.1-6.1h-3l-1.7 9.9h2z" fill="#fff"/><path d="M35.8 24.6c.6-3.4.7-6.2 2.2-5.7.2-1.3.5-1.9.7-2.4h-.4c-.9 0-1.7 1.2-1.7 1.2l.2-1.1h-2l-1.3 8h2.3zm12.8-8.3c-1.4 0-2.5.4-2.5.4l-.3 1.8s.9-.4 2.3-.4c.7 0 1.3.1 1.3.7 0 .4-.1.5-.1.5h-.9c-1.8 0-3.7.7-3.7 3.1 0 1.9 1.2 2.3 2 2.3 1.4 0 2.1-.9 2.2-.9l-.1.8h1.9l.8-5.7c0-2.5-2.2-2.6-2.9-2.6zm.5 4.6c0 .3-.2 2-1.4 2-.6 0-.8-.5-.8-.8 0-.5.3-1.2 1.9-1.2h.3zm4 3.7c.6-3.4.7-6.2 2.2-5.7.2-1.3.5-1.9.7-2.4h-.4c-.9 0-1.7 1.2-1.7 1.2l.2-1.1h-2l-1.3 8h2.3z" fill="#fff"/></svg>
